; generated by Slic3r 1.0.0RC3 on 2005-07-27 at 12:09:46

; layer_height = 0.3
; perimeters = 2
; top_solid_layers = 3
; bottom_solid_layers = 2
; fill_density = 0.20
; perimeter_speed = 60
; infill_speed = 60
; travel_speed = 180
; nozzle_diameter = 0.4
; filament_diameter = 1.72
; extrusion_multiplier = 1
; perimeters extrusion width = 0.40mm
; infill extrusion width = 0.42mm
; solid infill extrusion width = 0.42mm
; top infill extrusion width = 0.42mm
; first layer extrusion width = 0.38mm

G21 ; set units to millimeters
M107
M190 S50 ; wait for bed temperature to be reached
M104 S180 ; set temperature
G28 ; home all axes
G1 Z5 F5000 ; lift nozzle
M109 S180 ; wait for temperature to be reached
G90 ; use absolute coordinates
G92 E0
M82 ; use absolute distances for extrusion
G1 F1800.000 E-1.00000
G92 E0
G1 Z-0.250 F10800.000
G1 X71.548 Y74.444 F10800.000
G1 E1.00000 F1800.000
G1 X71.868 Y74.144 E1.01795 F1800.000
G1 X72.568 Y73.554 E1.05542
G1 X73.358 Y72.984 E1.09529
G1 X74.588 Y72.234 E1.15424
G1 X75.778 Y71.604 E1.20935
G1 X76.678 Y71.174 E1.25017
G1 X77.098 Y70.994 E1.26887
G1 X81.028 Y69.434 E1.44192
G1 X81.918 Y69.144 E1.48022
G1 X83.368 Y68.734 E1.54189
G1 X84.008 Y68.584 E1.56880
G1 X93.688 Y66.844 E1.97130
G1 X94.048 Y66.784 E1.98624
G1 X94.848 Y66.694 E2.01919
G1 X95.568 Y66.674 E2.04866
G1 X96.288 Y66.734 E2.07823
G1 X98.208 Y66.994 E2.15753
G1 X98.518 Y67.054 E2.17045
G1 X99.288 Y67.254 E2.20301
G1 X99.978 Y67.474 E2.23265
G1 X100.538 Y67.674 E2.25698
G1 X101.158 Y67.964 E2.28500
G1 X107.348 Y71.194 E2.57074
G1 X108.048 Y71.584 E2.60353
G1 X110.688 Y73.164 E2.72945
G1 X111.158 Y73.484 E2.75272
G1 X114.448 Y75.884 E2.91938
G1 X114.818 Y76.184 E2.93888
G1 X115.658 Y76.994 E2.98663
G1 X116.348 Y77.934 E3.03435
G1 X116.638 Y78.414 E3.05731
G1 X117.038 Y79.174 E3.09245
G1 X117.458 Y80.184 E3.13722
G1 X117.678 Y80.864 E3.16647
G1 X117.848 Y81.484 E3.19278
G1 X118.158 Y82.884 E3.25146
G1 X118.298 Y83.864 E3.29198
G1 X118.338 Y84.624 E3.32312
G1 X118.338 Y85.334 E3.35218
G1 X118.318 Y85.894 E3.37511
G1 X118.278 Y86.344 E3.39360
G1 X118.158 Y87.064 E3.42348
G1 X117.848 Y88.464 E3.48216
G1 X117.688 Y89.054 E3.50718
G1 X117.468 Y89.744 E3.53682
G1 X117.038 Y90.784 E3.58287
G1 X116.638 Y91.544 E3.61802
G1 X116.348 Y92.024 E3.64097
G1 X115.698 Y92.914 E3.68608
G1 X114.928 Y93.684 E3.73064
G1 X114.198 Y94.244 E3.76830
G1 X108.358 Y98.174 E4.05638
G1 X107.558 Y98.654 E4.09456
G1 X106.628 Y99.094 E4.13667
G1 X100.248 Y101.524 E4.41607
G1 X99.168 Y101.834 E4.46205
G1 X98.408 Y101.964 E4.49361
G1 X97.798 Y102.034 E4.51874
G1 X97.308 Y102.064 E4.53883
G1 X96.788 Y102.084 E4.56012
G1 X95.828 Y102.074 E4.59941
G1 X85.658 Y101.574 E5.01613
G1 X84.668 Y101.474 E5.05685
G1 X83.638 Y101.284 E5.09972
G1 X82.608 Y101.014 E5.14329
G1 X81.388 Y100.664 E5.19524
G1 X80.668 Y100.414 E5.22643
G1 X77.198 Y98.984 E5.38003
G1 X75.818 Y98.364 E5.44194
G1 X74.758 Y97.804 E5.49100
G1 X74.028 Y97.384 E5.52547
G1 X73.598 Y97.114 E5.54625
G1 X72.538 Y96.364 E5.59939
G1 X72.168 Y96.064 E5.61889
G1 X71.568 Y95.534 E5.65165
G1 X70.108 Y94.134 E5.73443
G1 X68.618 Y92.544 E5.82361
G1 X67.978 Y91.754 E5.86522
G1 X67.718 Y91.374 E5.88407
G1 X67.188 Y90.454 E5.92752
G1 X66.998 Y90.054 E5.94564
G1 X66.668 Y89.224 E5.98220
G1 X66.578 Y88.944 E5.99423
G1 X66.378 Y88.154 E6.02758
G1 X66.248 Y87.204 E6.06682
G1 X66.158 Y85.734 E6.12710
G1 X66.158 Y84.214 E6.18930
G1 X66.248 Y82.744 E6.24958
G1 X66.338 Y82.024 E6.27927
G1 X66.498 Y81.314 E6.30906
G1 X66.618 Y80.904 E6.32654
G1 X66.998 Y79.904 E6.37032
G1 X67.188 Y79.504 E6.38845
G1 X67.668 Y78.654 E6.42840
G1 X67.928 Y78.264 E6.44758
G1 X68.468 Y77.564 E6.48376
G1 X68.808 Y77.184 E6.50463
G1 X70.058 Y75.874 E6.57873
G1 X71.507 Y74.483 E6.66092
G1 X71.808 Y74.714 F10800.000
G1 X72.818 Y73.844 E6.71547 F1800.000
G1 X73.568 Y73.304 E6.75329
G1 X74.768 Y72.564 E6.81099
G1 X75.938 Y71.944 E6.86518
G1 X76.838 Y71.514 E6.90600
G1 X77.238 Y71.344 E6.92379
G1 X81.168 Y69.784 E7.09683
G1 X82.198 Y69.454 E7.14110
G1 X83.468 Y69.094 E7.19512
G1 X84.078 Y68.954 E7.22074
G1 X93.758 Y67.214 E7.62324
G1 X94.878 Y67.074 E7.66944
G1 X95.558 Y67.054 E7.69728
G1 X96.238 Y67.104 E7.72518
G1 X97.758 Y67.304 E7.78793
G1 X98.448 Y67.434 E7.81666
G1 X99.178 Y67.614 E7.84743
G1 X99.868 Y67.834 E7.87707
G1 X100.398 Y68.034 E7.90025
G1 X100.978 Y68.294 E7.92627
G1 X107.168 Y71.524 E8.21201
G1 X107.678 Y71.804 E8.23582
G1 X110.488 Y73.494 E8.37002
G1 X110.938 Y73.794 E8.39215
G1 X114.208 Y76.174 E8.55767
G1 X114.578 Y76.474 E8.57717
G1 X115.368 Y77.244 E8.62231
G1 X116.018 Y78.134 E8.66742
G1 X116.308 Y78.614 E8.69037
G1 X116.698 Y79.344 E8.72424
G1 X117.098 Y80.304 E8.76680
G1 X117.318 Y80.984 E8.79605
G1 X117.478 Y81.564 E8.82068
G1 X117.788 Y82.964 E8.87936
G1 X117.918 Y83.894 E8.91779
G1 X117.958 Y84.624 E8.94771
G1 X117.958 Y85.334 E8.97677
G1 X117.918 Y86.104 E9.00832
G1 X117.788 Y86.984 E9.04473
G1 X117.478 Y88.384 E9.10341
G1 X117.328 Y88.944 E9.12714
G1 X117.108 Y89.634 E9.15678
G1 X116.698 Y90.614 E9.20025
G1 X116.308 Y91.344 E9.23412
G1 X116.018 Y91.824 E9.25708
G1 X115.418 Y92.664 E9.29932
G1 X114.678 Y93.394 E9.34186
G1 X113.988 Y93.924 E9.37747
G1 X108.148 Y97.854 E9.66555
G1 X107.368 Y98.324 E9.70282
G1 X106.488 Y98.734 E9.74255
G1 X100.108 Y101.164 E10.02196
G1 X99.088 Y101.464 E10.06547
G1 X98.368 Y101.584 E10.09534
G1 X97.758 Y101.654 E10.12047
G1 X97.298 Y101.684 E10.13934
G1 X96.788 Y101.704 E10.16022
G1 X95.848 Y101.694 E10.19870
G1 X85.698 Y101.194 E10.61459
G1 X84.708 Y101.094 E10.65532
G1 X83.738 Y100.914 E10.69569
G1 X82.708 Y100.644 E10.73927
G1 X81.488 Y100.294 E10.79121
G1 X80.818 Y100.064 E10.82020
G1 X77.348 Y98.634 E10.97380
G1 X76.298 Y98.174 E11.02071
G1 X75.108 Y97.554 E11.07563
G1 X74.488 Y97.204 E11.10477
G1 X73.628 Y96.674 E11.14611
G1 X72.778 Y96.074 E11.18869
G1 X72.408 Y95.774 E11.20818
G1 X71.828 Y95.254 E11.24006
G1 X70.378 Y93.864 E11.32227
G1 X68.888 Y92.284 E11.41115
G1 X68.288 Y91.534 E11.45046
G1 X68.028 Y91.154 E11.46930
G1 X67.538 Y90.294 E11.50981
G1 X67.348 Y89.894 E11.52793
G1 X67.038 Y89.104 E11.56266
G1 X66.748 Y88.074 E11.60645
G1 X66.628 Y87.184 E11.64321
G1 X66.538 Y85.734 E11.70266
G1 X66.538 Y84.214 E11.76487
G1 X66.628 Y82.764 E11.82433
G1 X66.708 Y82.084 E11.85235
G1 X66.988 Y81.014 E11.89761
G1 X67.348 Y80.064 E11.93919
G1 X67.538 Y79.664 E11.95731
G1 X67.988 Y78.864 E11.99488
G1 X68.248 Y78.474 E12.01406
G1 X68.758 Y77.814 E12.04820
G1 X69.078 Y77.454 E12.06791
G1 X70.328 Y76.144 E12.14201
G1 X71.767 Y74.753 E12.22390
G1 F1800.000 E11.22390
G92 E0
G1 X95.114 Y94.444 F10800.000
G1 E1.00000 F1800.000
G1 X95.725 Y94.253 E1.02620 F1800.000
G1 X96.065 Y94.205 E1.04023
G1 X96.369 Y94.220 E1.05269
G1 X96.583 Y94.177 E1.06161
G1 X96.843 Y94.252 E1.07271
G1 X97.306 Y94.330 E1.09192
G1 X97.783 Y94.509 E1.11277
G1 X97.766 Y94.658 E1.11891
G1 X97.266 Y94.727 E1.13958
G1 X96.493 Y94.767 E1.17126
G1 X95.942 Y94.731 E1.19386
G1 X95.126 Y94.605 E1.22765
G1 X95.118 Y94.501 E1.23190
G1 X94.919 Y94.214 F10800.000
G1 X95.141 Y94.054 E1.24309 F1800.000
G1 X95.580 Y93.897 E1.26217
G1 X95.969 Y93.830 E1.27833
G1 X96.350 Y93.836 E1.29393
G1 X96.586 Y93.789 E1.30376
G1 X96.932 Y93.880 E1.31841
G1 X97.411 Y93.963 E1.33829
G1 X97.665 Y94.054 E1.34937
G1 X98.199 Y94.398 E1.37535
G1 X98.316 Y94.542 E1.38295
G1 X98.357 Y94.673 E1.38859
G1 X98.234 Y94.829 E1.39670
G1 X97.868 Y95.004 E1.41330
G1 X97.619 Y95.067 E1.42381
G1 X96.783 Y95.145 E1.45818
G1 X96.172 Y95.137 E1.48320
G1 X95.904 Y95.109 E1.49420
G1 X95.426 Y95.039 E1.51397
G1 X95.180 Y94.968 E1.52446
G1 X94.925 Y94.858 E1.53584
G1 X94.571 Y94.607 E1.55360
G1 X94.876 Y94.252 E1.57279
G1 X95.176 Y94.308 F10800.000
G1 F1800.000 E0.57279
G92 E0
G1 X106.802 Y79.390 F10800.000
G1 E1.00000 F1800.000
G1 X107.289 Y80.032 E1.03297 F1800.000
G1 X108.074 Y80.944 E1.08224
G1 X108.789 Y81.317 E1.11523
G1 X109.900 Y81.645 E1.16264
G1 X110.128 Y81.826 E1.17457
G1 X110.267 Y82.118 E1.18780
G1 X110.390 Y82.246 E1.19508
G1 X110.490 Y82.445 E1.20418
G1 X110.546 Y82.775 E1.21789
G1 X110.696 Y83.096 E1.23236
G1 X110.723 Y83.787 E1.26069
G1 X110.878 Y84.331 E1.28383
G1 X110.991 Y84.514 E1.29264
G1 X110.890 Y84.694 E1.30106
G1 X110.890 Y85.088 E1.31719
G1 X110.856 Y85.371 E1.32889
G1 X110.942 Y85.452 E1.33371
G1 X110.811 Y85.601 E1.34181
G1 X110.828 Y85.808 E1.35031
G1 X110.771 Y86.007 E1.35877
G1 X110.659 Y86.155 E1.36639
G1 X110.691 Y86.877 E1.39596
G1 X110.546 Y87.188 E1.41000
G1 X110.490 Y87.518 E1.42370
G1 X110.363 Y87.769 E1.43521
G1 X110.133 Y88.133 E1.45284
G1 X109.898 Y88.205 E1.46291
G1 X109.747 Y88.361 E1.47183
G1 X108.717 Y88.678 E1.51592
G1 X108.412 Y88.842 E1.53007
G1 X107.740 Y88.602 E1.55926
G1 X107.251 Y88.582 E1.57929
G1 X106.740 Y88.690 E1.60066
G1 X106.443 Y88.922 E1.61611
G1 X106.307 Y89.105 E1.62542
G1 X105.974 Y89.410 E1.64392
G1 X105.729 Y89.830 E1.66384
G1 X105.066 Y90.576 E1.70465
G1 X104.949 Y90.751 E1.71327
G1 X104.527 Y91.533 E1.74964
G1 X104.558 Y91.618 E1.75336
G1 X104.471 Y91.936 E1.76684
G1 X104.264 Y92.103 E1.77775
G1 X104.014 Y92.246 E1.78953
G1 X103.610 Y92.347 E1.80658
G1 X103.254 Y92.292 E1.82132
G1 X102.942 Y92.276 E1.83411
G1 X102.658 Y92.148 E1.84683
G1 X101.430 Y91.742 E1.89979
G1 X101.182 Y91.634 E1.91085
G1 X100.888 Y91.428 E1.92555
G1 X100.701 Y91.478 E1.93346
G1 X100.329 Y91.382 E1.94916
G1 X99.922 Y91.244 E1.96677
G1 X99.528 Y91.199 E1.98299
G1 X99.746 Y90.761 E2.00303
G1 X99.820 Y90.529 E2.01300
G1 X100.245 Y89.631 E2.05364
G1 X100.326 Y89.309 E2.06724
G1 X100.408 Y88.830 E2.08713
G1 X100.278 Y88.089 E2.11792
G1 X100.144 Y87.694 E2.13498
G1 X99.992 Y87.458 E2.14646
G1 X99.787 Y87.077 E2.16419
G1 X99.615 Y86.429 E2.19163
G1 X99.866 Y85.766 E2.22063
G1 X99.971 Y85.624 E2.22786
G1 X100.295 Y85.295 E2.24675
G1 X100.295 Y84.668 E2.27244
G1 X99.955 Y84.323 E2.29225
G1 X99.957 Y84.096 E2.30154
G1 X99.770 Y83.955 E2.31113
G1 X99.581 Y83.433 E2.33382
G1 X99.517 Y83.186 E2.34429
G1 X99.689 Y83.057 E2.35309
G1 X99.979 Y82.536 E2.37750
G1 X100.273 Y81.905 E2.40599
G1 X100.396 Y81.207 E2.43500
G1 X100.430 Y80.794 E2.45196
G1 X100.303 Y80.562 E2.46279
G1 X100.245 Y80.332 E2.47250
G1 X99.923 Y79.634 E2.50397
G1 X99.487 Y78.780 E2.54318
G1 X99.930 Y78.716 E2.56149
G1 X100.329 Y78.581 E2.57875
G1 X100.861 Y78.441 E2.60124
G1 X101.133 Y78.353 E2.61297
G1 X101.307 Y78.254 E2.62112
G1 X102.052 Y78.004 E2.65330
G1 X102.685 Y77.816 E2.68032
G1 X102.942 Y77.687 E2.69208
G1 X103.254 Y77.671 E2.70486
G1 X103.611 Y77.617 E2.71963
G1 X104.016 Y77.718 E2.73672
G1 X104.274 Y77.865 E2.74887
G1 X104.802 Y78.241 E2.77541
G1 X105.118 Y78.426 E2.79040
G1 X105.573 Y78.641 E2.81099
G1 X106.752 Y79.363 E2.86755
G1 X106.942 Y79.034 F10800.000
G1 X107.067 Y79.100 E2.87335 F1440.000
G1 X107.581 Y79.788 E2.90849
G1 X108.315 Y80.640 E2.95450
G1 X108.921 Y80.959 E2.98254
G1 X110.094 Y81.304 E3.03256
G1 X110.215 Y81.419 E3.03939
G1 X110.419 Y81.566 E3.04969
G1 X110.584 Y81.899 E3.06491
G1 X110.703 Y82.023 E3.07194
G1 X110.856 Y82.325 E3.08577
G1 X110.913 Y82.661 E3.09972
G1 X111.070 Y83.000 E3.11500
G1 X111.101 Y83.727 E3.14480
G1 X111.229 Y84.176 E3.16391
G1 X111.379 Y84.418 E3.17554
G1 X111.384 Y84.592 E3.18268
G1 X111.271 Y84.793 E3.19213
G1 X111.257 Y85.226 E3.20985
G1 X111.385 Y85.346 E3.21705
G1 X111.379 Y85.531 E3.22461
G1 X111.203 Y85.731 E3.23550
G1 X111.213 Y85.846 E3.24022
G1 X111.117 Y86.179 E3.25442
G1 X111.045 Y86.275 E3.25932
G1 X111.075 Y86.953 E3.28710
G1 X110.913 Y87.302 E3.30286
G1 X110.856 Y87.638 E3.31681
G1 X110.694 Y87.957 E3.33143
G1 X110.415 Y88.405 E3.35306
G1 X110.343 Y88.467 E3.35693
G1 X110.103 Y88.540 E3.36721
G1 X109.949 Y88.699 E3.37626
G1 X108.865 Y89.030 E3.42267
G1 X108.497 Y89.228 E3.43978
G1 X108.113 Y89.203 E3.45553
G1 X108.082 Y89.128 E3.45883
G1 X107.667 Y88.980 E3.47687
G1 X107.283 Y88.964 E3.49258
G1 X106.905 Y89.044 E3.50840
G1 X106.717 Y89.190 E3.51814
G1 X106.591 Y89.361 E3.52683
G1 X106.273 Y89.651 E3.54445
G1 X106.044 Y90.045 E3.56310
G1 X105.368 Y90.809 E3.60486
G1 X105.275 Y90.948 E3.61168
G1 X104.943 Y91.562 E3.64025
G1 X104.957 Y91.601 E3.64193
G1 X104.829 Y92.070 E3.66183
G1 X104.731 Y92.215 E3.66901
G1 X104.479 Y92.418 E3.68226
G1 X104.155 Y92.603 E3.69753
G1 X103.604 Y92.733 E3.72067
G1 X103.215 Y92.671 E3.73680
G1 X102.841 Y92.651 E3.75213
G1 X102.535 Y92.508 E3.76597
G1 X101.294 Y92.097 E3.81944
G1 X100.995 Y91.968 E3.83279
G1 X100.814 Y91.841 E3.84182
G1 X100.699 Y91.872 E3.84670
G1 X100.221 Y91.747 E3.86693
G1 X99.838 Y91.617 E3.88346
G1 X99.098 Y91.562 E3.91384
G1 X99.117 Y91.214 E3.92813
G1 X99.393 Y90.617 E3.95502
G1 X99.467 Y90.383 E3.96511
G1 X99.885 Y89.504 E4.00492
G1 X99.953 Y89.230 E4.01647
G1 X100.022 Y88.830 E4.03308
G1 X99.909 Y88.184 E4.05994
G1 X99.799 Y87.861 E4.07390
G1 X99.656 Y87.639 E4.08468
G1 X99.431 Y87.219 E4.10420
G1 X99.218 Y86.416 E4.13821
G1 X99.535 Y85.574 E4.17502
G1 X99.684 Y85.374 E4.18523
G1 X99.914 Y85.140 E4.19868
G1 X99.914 Y84.823 E4.21162
G1 X99.626 Y84.515 E4.22891
G1 X99.574 Y84.442 E4.23256
G1 X99.575 Y84.284 E4.23903
G1 X99.450 Y84.190 E4.24546
G1 X99.217 Y83.545 E4.27352
G1 X99.148 Y83.277 E4.28483
G1 X99.107 Y83.017 E4.29562
G1 X99.399 Y82.799 E4.31051
G1 X99.637 Y82.367 E4.33072
G1 X99.907 Y81.789 E4.35681
G1 X100.018 Y81.157 E4.38308
G1 X100.042 Y80.877 E4.39458
G1 X99.946 Y80.702 E4.40274
G1 X99.885 Y80.459 E4.41301
G1 X99.581 Y79.800 E4.44270
G1 X99.053 Y78.746 E4.49097
G1 X99.071 Y78.402 E4.50505
G1 X99.639 Y78.374 E4.52832
G1 X99.841 Y78.345 E4.53669
G1 X100.221 Y78.216 E4.55309
G1 X100.979 Y78.003 E4.58533
G1 X101.195 Y77.880 E4.59549
G1 X101.263 Y77.876 E4.59830
G1 X101.924 Y77.645 E4.62695
G1 X102.563 Y77.452 E4.65428
G1 X102.841 Y77.312 E4.66700
G1 X103.215 Y77.292 E4.68232
G1 X103.605 Y77.231 E4.69846
G1 X104.155 Y77.360 E4.72160
G1 X104.479 Y77.545 E4.73685
G1 X105.008 Y77.922 E4.76346
G1 X105.295 Y78.090 E4.77706
G1 X105.760 Y78.308 E4.79806
G1 X106.893 Y79.005 E4.85250
G1 X106.944 Y79.175 F10800.000
G1 F1800.000 E3.85250
G92 E0
G1 X96.816 Y74.186 F10800.000
G1 E1.00000 F1800.000
G1 X96.821 Y74.460 E1.01122 F1800.000
G1 X96.246 Y74.528 E1.03490
G1 X95.847 Y74.539 E1.05124
G1 X95.551 Y74.510 E1.06341
G1 X95.373 Y74.471 E1.07085
G1 X95.205 Y74.413 E1.07816
G1 X94.778 Y74.194 E1.09777
G1 X94.795 Y74.090 E1.10207
G1 X95.219 Y74.024 E1.11965
G1 X95.439 Y74.011 E1.12866
G1 X96.136 Y74.128 E1.15759
G1 X96.759 Y74.181 E1.18318
G1 X96.872 Y73.820 F10800.000
G1 X97.195 Y73.880 E1.19661 F1800.000
G1 X97.927 Y74.120 E1.22814
G1 X98.096 Y74.261 E1.23717
G1 X98.253 Y74.438 E1.24685
G1 X98.399 Y74.682 E1.25848
G1 X97.918 Y74.835 E1.27914
G1 X97.291 Y74.876 E1.30486
G1 X96.107 Y74.913 E1.35335
G1 X95.841 Y74.920 E1.36425
G1 X95.589 Y74.899 E1.37461
G1 X95.263 Y74.836 E1.38820
G1 X95.055 Y74.763 E1.39721
G1 X94.908 Y74.688 E1.40396
G1 X94.723 Y74.557 E1.41323
G1 X94.582 Y74.385 E1.42235
G1 X94.483 Y74.145 E1.43295
G1 X94.559 Y73.977 E1.44050
G1 X94.691 Y73.813 E1.44912
G1 X94.805 Y73.725 E1.45498
G1 X94.922 Y73.680 E1.46012
G1 X95.181 Y73.645 E1.47082
G1 X95.477 Y73.632 E1.48297
G1 X96.187 Y73.751 E1.51243
G1 X96.815 Y73.814 E1.53826
G1 X96.990 Y74.126 F10800.000
G1 F1800.000 E0.53826
G92 E0
G1 X85.964 Y94.236 F10800.000
G1 E1.00000 F1800.000
G1 X85.437 Y94.186 E1.02165 F1800.000
G1 X85.261 Y94.147 E1.02904
G1 X83.458 Y93.630 E1.10578
G1 X83.314 Y93.552 E1.11251
G1 X82.822 Y93.350 E1.13426
G1 X81.542 Y92.741 E1.19225
G1 X80.995 Y92.538 E1.21614
G1 X80.697 Y92.458 E1.22877
G1 X80.038 Y92.229 E1.25731
G1 X79.918 Y92.146 E1.26330
G1 X79.596 Y92.043 E1.27713
G1 X79.238 Y91.880 E1.29322
G1 X78.388 Y91.431 E1.33256
